Numix-GalliumOS/16/categories/applications-sports.svg

<?xml version="1.0" encoding="UTF-8" standalone="no"?>
<svg
   xmlns:dc="http://purl.org/dc/elements/1.1/"
   xmlns:cc="http://creativecommons.org/ns#"
   xmlns:rdf="http://www.w3.org/1999/02/22-rdf-syntax-ns#"
   xmlns:svg="http://www.w3.org/2000/svg"
   xmlns="http://www.w3.org/2000/svg"
   xmlns:sodipodi="http://sodipodi.sourceforge.net/DTD/sodipodi-0.dtd"
   xmlns:inkscape="http://www.inkscape.org/namespaces/inkscape"
   width="16"
   height="16"
   viewBox="0 0 16 16"
   id="svg2"
   version="1.1"
   inkscape:version="0.91 r"
   sodipodi:docname="applications-sports.svg">
  <metadata
     id="metadata10">
    <rdf:RDF>
      <cc:Work
         rdf:about="">
        <dc:format>image/svg+xml</dc:format>
        <dc:type
           rdf:resource="http://purl.org/dc/dcmitype/StillImage" />
      </cc:Work>
    </rdf:RDF>
  </metadata>
  <defs
     id="defs8" />
  <sodipodi:namedview
     pagecolor="#ffffff"
     bordercolor="#666666"
     borderopacity="1"
     objecttolerance="10"
     gridtolerance="10"
     guidetolerance="10"
     inkscape:pageopacity="0"
     inkscape:pageshadow="2"
     inkscape:window-width="961"
     inkscape:window-height="480"
     id="namedview6"
     showgrid="false"
     inkscape:zoom="14.75"
     inkscape:cx="8"
     inkscape:cy="8"
     inkscape:window-x="10"
     inkscape:window-y="34"
     inkscape:window-maximized="0"
     inkscape:current-layer="svg2" />
  <path
     style="fill:#9c9c37;stroke:#9c9c37;stroke-width:0.06187213"
     d="M 7.5086697,14.162068 C 4.9029473,13.98627 2.6136619,11.931381 1.9690679,9.4428561 1.3713535,6.8683855 2.5550624,3.9618512 4.863881,2.6179698 6.3484005,1.7311643 8.2118632,1.6178719 9.8565545,2.0827612 c 2.0314475,0.6211545 3.5784735,2.4299252 4.1175885,4.4418407 0.488329,1.8595569 0.136732,3.9652321 -1.156363,5.4302191 -1.175895,1.457174 -3.051078,2.301006 -4.9262605,2.22678 -0.1289188,-0.0039 -0.2578376,-0.0078 -0.3828498,-0.01953 z m 1.5509322,-0.292997 c 0.4687957,-0.03907 0.3867564,-0.183612 -0.039066,-0.218772 -0.7578863,-0.148452 -1.5782786,-0.152358 -2.3127251,0.105479 0.644594,0.312531 1.5040527,0.230492 2.2267793,0.136732 z M 6.7585967,13.458874 C 7.0945669,13.118997 6.7429702,12.306418 6.4538795,11.986074 5.8014722,11.650104 5.297517,11.107082 4.6998025,10.696885 4.25054,10.532807 3.8129974,10.845337 3.3793615,10.950816 c -0.00391,0.42973 -0.031253,0.914152 0.34769,1.211056 0.6211543,0.613342 1.3712273,1.152457 2.2150594,1.394668 0.2734642,0.01172 0.5586482,-0.0039 0.8164858,-0.09767 z m 3.5745663,0.01953 c 1.082137,-0.468795 2.093954,-1.214962 2.707295,-2.234593 0.218772,-0.292998 0.378943,-0.808673 -0.191425,-0.636781 -0.722726,0.453169 -1.375134,1.011818 -2.10958,1.441547 -0.449263,0.355504 -0.7735128,0.839926 -1.0899499,1.304815 0.1093857,0.257838 0.4727019,0.195332 0.6836599,0.125012 z m 0.734447,-1.875183 c 0.543022,-0.445356 1.328254,-0.73054 1.613438,-1.406388 C 12.809967,9.6655341 12.821687,9.114699 12.87638,8.5716771 12.333358,8.0911613 11.669231,7.7669109 11.016824,7.458287 10.376136,7.5090731 9.8565545,8.0794414 9.344786,8.4505715 9.0752284,8.5990235 9.1455478,8.9349939 9.0713218,9.1928316 8.9736558,9.7944529 8.8603638,10.396075 8.7939511,11.001603 c 0.5039553,0.37113 1.0704167,0.714913 1.6837579,0.859459 0.222678,0.0039 0.406289,-0.148452 0.589901,-0.257838 z m -3.879284,0.09376 C 7.6805614,11.509465 8.3329687,11.368826 8.5634599,10.849244 8.7353516,10.118704 8.8291108,9.3725367 8.9228699,8.6263699 8.4306345,8.1614807 7.907146,7.6731517 7.2664586,7.4309405 6.7156237,7.4231273 6.2468281,7.8137905 5.7545927,8.0247486 5.0904655,8.2083603 4.8599744,8.806075 4.8326279,9.4272295 c -0.1953315,0.6172475 0.027346,1.2501225 0.5859946,1.5860935 0.4883288,0.35941 1.1133896,0.933685 1.7697035,0.68366 z M 3.066831,10.837524 C 2.6683547,10.099171 2.390984,9.2904974 2.2815983,8.4622914 1.8870287,8.540424 2.2464387,9.5092688 2.3558243,9.9038387 2.5394359,10.435141 2.82462,10.927377 3.1215239,11.407892 3.1762167,11.208654 3.2074697,11.013323 3.066831,10.837524 Z M 2.8949393,7.5520461 C 3.0707376,7.3059283 3.3442018,7.1105967 3.4535875,6.8254125 3.6371991,5.9659535 3.9380096,5.1338408 4.3677389,4.3642343 4.3521124,3.868092 3.7934643,3.5672814 3.5160935,4.1142099 2.7308608,5.1260276 2.1097066,6.3605233 2.0823602,7.6653385 1.9768812,8.1146011 2.3675442,8.4388516 2.5941287,7.9075496 2.6917945,7.7903507 2.7933669,7.6731517 2.8949393,7.5520461 Z M 13.052178,8.169294 C 13.384242,7.7317512 13.845224,7.2121691 13.728025,6.618361 13.517067,5.493251 12.938886,4.4267404 12.052081,3.6962002 11.78643,3.5829079 11.305914,3.1727115 11.118396,3.5594681 c -0.269557,0.5234887 -0.945404,1.0157243 -0.703193,1.6642253 0.207051,0.6406876 0.363316,1.3126284 0.664127,1.9142497 0.562555,0.4375428 1.211055,0.7774198 1.863462,1.062604 z M 5.5944209,7.8802032 C 6.1100961,7.6184589 6.6140514,7.3293681 7.1180067,7.0441839 7.2898984,6.4503759 7.5047631,5.8721943 7.7000946,5.2901061 7.7313476,4.6572317 7.1648862,4.2040624 6.7898497,3.762613 6.4187198,3.1688049 5.7897524,3.6258808 5.3326766,3.8407456 4.3286726,4.3798608 4.0981814,5.5596637 3.754398,6.544135 c 0.046879,0.3711301 0.3867564,0.6758474 0.6328741,0.9532182 0.3398768,0.3437837 0.7266332,0.796953 1.2071488,0.38285 z M 9.3057197,4.6923914 C 9.5752771,4.6533251 9.872181,4.6806715 10.122205,4.6025389 10.493335,4.2040624 10.821492,3.7391732 10.973851,3.2117779 10.786333,2.6843825 10.169085,2.4421713 9.6729429,2.2624663 9.0400688,2.0749479 8.3603151,1.9811887 7.7000946,2.0554148 7.2273923,2.2976259 6.3757469,3.0008197 6.8562624,3.5438416 c 0.3515968,0.4180096 0.7266333,0.8164861 1.109483,1.2071493 0.4492625,0.00781 0.8946184,-0.031253 1.3399743,-0.058599 z"
     id="path4"
     inkscape:connector-curvature="0" />
</svg>

<svg xmlns="http://www.w3.org/2000/svg" viewBox="0 0 16 16">
 <path d="m 7.509 14.162 c -2.606 -0.176 -4.895 -2.231 -5.54 -4.719 -0.598 -2.574 0.586 -5.481 2.895 -6.825 1.485 -0.887 3.348 -1 4.993 -0.535 c 2.031 0.621 3.578 2.43 4.118 4.442 0.488 1.86 0.137 3.965 -1.156 5.43 -1.176 1.457 -3.051 2.301 -4.926 2.227 -0.129 -0.004 -0.258 -0.008 -0.383 -0.02 z m 1.551 -0.293 c 0.469 -0.039 0.387 -0.184 -0.039 -0.219 -0.758 -0.148 -1.578 -0.152 -2.313 0.105 0.645 0.313 1.504 0.23 2.227 0.137 z m -2.301 -0.41 c 0.336 -0.34 -0.016 -1.152 -0.305 -1.473 -0.652 -0.336 -1.156 -0.879 -1.754 -1.289 -0.449 -0.164 -0.887 0.148 -1.32 0.254 c -0.004 0.43 -0.031 0.914 0.348 1.211 0.621 0.613 1.371 1.152 2.215 1.395 0.273 0.012 0.559 -0.004 0.816 -0.098 z m 3.575 0.02 c 1.082 -0.469 2.094 -1.215 2.707 -2.235 0.219 -0.293 0.379 -0.809 -0.191 -0.637 -0.723 0.453 -1.375 1.012 -2.11 1.442 -0.449 0.356 -0.774 0.84 -1.09 1.305 0.109 0.258 0.473 0.195 0.684 0.125 z m 0.734 -1.875 c 0.543 -0.445 1.328 -0.731 1.613 -1.406 c 0.129 -0.531 0.141 -1.082 0.195 -1.625 -0.543 -0.481 -1.207 -0.805 -1.86 -1.113 -0.641 0.051 -1.16 0.621 -1.672 0.992 -0.27 0.148 -0.199 0.484 -0.273 0.742 -0.098 0.602 -0.211 1.203 -0.277 1.809 c 0.504 0.371 1.07 0.715 1.684 0.859 0.223 0.004 0.406 -0.148 0.59 -0.258 z m -3.879 0.094 c 0.492 -0.188 1.145 -0.328 1.375 -0.848 0.172 -0.731 0.266 -1.477 0.359 -2.223 -0.492 -0.465 -1.016 -0.953 -1.656 -1.195 -0.551 -0.008 -1.02 0.383 -1.512 0.594 -0.664 0.184 -0.895 0.781 -0.922 1.402 c -0.195 0.617 0.027 1.25 0.586 1.586 0.488 0.359 1.113 0.934 1.77 0.684 z m -4.121 -0.859 c -0.398 -0.738 -0.676 -1.547 -0.785 -2.375 -0.395 0.078 -0.035 1.047 0.074 1.442 0.184 0.531 0.469 1.024 0.766 1.504 0.055 -0.199 0.086 -0.395 -0.055 -0.57 m -0.172 -3.285 c 0.176 -0.246 0.449 -0.441 0.559 -0.727 0.184 -0.859 0.484 -1.692 0.914 -2.461 -0.016 -0.496 -0.574 -0.797 -0.852 -0.25 -0.785 1.012 -1.406 2.246 -1.434 3.551 -0.105 0.449 0.285 0.774 0.512 0.242 0.098 -0.117 0.199 -0.234 0.301 -0.356 m 10.157 0.617 c 0.332 -0.438 0.793 -0.957 0.676 -1.551 -0.211 -1.125 -0.789 -2.192 -1.676 -2.922 -0.266 -0.113 -0.746 -0.523 -0.934 -0.137 c -0.27 0.523 -0.945 1.016 -0.703 1.664 0.207 0.641 0.363 1.313 0.664 1.914 0.563 0.438 1.211 0.777 1.863 1.063 z m -7.458 -0.289 c 0.516 -0.262 1.02 -0.551 1.524 -0.836 0.172 -0.594 0.387 -1.172 0.582 -1.754 0.031 -0.633 -0.535 -1.086 -0.91 -1.527 -0.371 -0.594 -1 -0.137 -1.457 0.078 -1 0.539 -1.234 1.719 -1.578 2.703 c 0.047 0.371 0.387 0.676 0.633 0.953 0.34 0.344 0.727 0.797 1.207 0.383 z m 3.711 -3.188 c 0.27 -0.039 0.566 -0.012 0.816 -0.09 0.371 -0.398 0.699 -0.863 0.852 -1.391 -0.188 -0.527 -0.805 -0.77 -1.301 -0.949 -0.633 -0.188 -1.313 -0.281 -1.973 -0.207 -0.473 0.242 -1.324 0.945 -0.844 1.488 c 0.352 0.418 0.727 0.816 1.109 1.207 0.449 0.008 0.895 -0.031 1.34 -0.059 z" style="fill:#9c9c37;stroke:#9c9c37;stroke-width:0.062"/>
</svg>
